X:1
T:The Foggy Dew
M:4/4
K:Em
B2|"Em"e2 dB e2 "Am"dB|A2 "D"B2 D2 "D"EF| "Em"GBAG "Bm"E2 ED |1 "Em"E3 B2:|
|2 "Em"E3 EF|"G"G2 GB d2 cB|"D"A2 A2 B2 "Em"GA| B2 gf edBd|
"Bm"e3 Bd|"Em"e2 dB e2 "Am"dB|A2 "D"B2 D2 "D"EF|"Em"GBAG "Bm"E2 ED|"Em"E3 |>|
